static/assets/img/logos/brand/target.svg

<svg fill="none" height="36" viewBox="0 0 169 36" width="169" xmlns="http://www.w3.org/2000/svg"><g clip-rule="evenodd" fill="#adb5bd" fill-rule="evenodd"><path d="m41.6843 9.70153h7.4485v20.98727h6.1895v-20.98727h7.4494v-5.31286h-21.0874zm15.4221 20.98727h6.5045l1.8536-5.312h7.5874l1.7849 5.312h6.3999l-9.0232-26.29922h-6.7671zm14.1587-10.0919h-4.5174l2.2704-6.3299zm10.4968 10.0919h5.9793v-9.4676h4.3026c.9079 0 1.9619-.1656 2.5006.5745s.4882 2.0285.4693 3.3604c-.0208 1.3318-.0145 2.7052.2869 3.6851.2996.9799.8392 1.8476 1.6216 1.8476h5.4018c-.62-.6539-1.06-1.4584-1.276-2.3344-.213-.8812-.183-1.8412-.144-2.9052.038-1.0631.084-2.2294-.039-3.1857-.122-.9582-.411-1.7055-.8836-2.2973-.4786-.5922-1.1223-1.0282-1.8491-1.2522 1.1407-.8206 2.0977-1.9127 2.6797-3.0708.58-1.1572.784-2.3796.861-3.5902.078-1.2105.027-2.40847-.354-3.54668-.383-1.13821-1.095-2.21761-2.0532-2.95772-.9683-.74486-2.1528-1.15188-3.3732-1.15902h-14.1316v26.29922zm12.9242-20.4797c.7192.4768 1.1578 1.3518 1.1469 2.2375-.0108.4525-.1275.896-.3405 1.295s-.5164.7423-.8858 1.0023c-.7508.5175-1.7588.4071-2.6964.4071h-4.1736v-5.19704h4.4028c.8789 0 1.8256-.22166 2.5466.25514zm10.1199-1.16534c-.899 1.33184-1.562 2.89524-1.922 4.89484-.359 1.9996-.417 4.4361-.093 6.5624.322 2.1271 1.027 3.943 1.884 5.3508.856 1.4079 1.864 2.4058 2.962 3.2581 1.099.8523 2.283 1.5581 3.619 1.9544 1.347.3904 2.762.4879 4.149.2859 1.335-.1991 2.519-.6849 3.442-1.1057.921-.4216 1.583-.7781 2.203-1.1961l1.05 1.6395h3.883l-.009-14.7452h-11.121v5.1446h5.215c.203.8876.081 1.8593-.368 2.6682-.45.8079-1.228 1.453-2.332 1.909-1.104.4551-2.531.7202-3.922.2977-1.389-.4225-2.739-1.5327-3.628-2.8039-.888-1.2694-1.317-2.7008-1.506-4.285-.186-1.5834-.133-3.3206.245-4.8352s1.082-2.8084 1.965-3.7403c.885-.93194 1.95-1.50104 3.291-1.74443 1.34-.24339 2.957-.15924 4.034.44334 1.079.60258 1.618 1.72269 1.929 2.43479.31.712.393 1.0151.403 1.3264h5.587c-.083-1.1636-.413-2.3009-1.079-3.60014-.667-1.29926-1.669-2.75867-3.093-3.7874s-3.269-1.62499-4.98-1.85118c-1.573-.21571-3.174-.10952-4.706.31215-1.416.39358-2.677 1.03688-3.874 1.90727-1.196.87311-2.33 1.97333-3.228 3.30516zm41.845 21.64504v-5.312h-12.327v-6.1018l10.594-.0217.002-4.8171h-10.596v-4.73376h12.327v-5.31286l-18.494.00362.03 26.2956zm.892-20.98727h7.451v20.98727h6.189v-20.98727h7.449v-5.31286h-21.089zm16.626 19.80737h.341v-.066c-.05.0009-.119-.0154-.148-.0814l-.259-.4307c.246-.0787.345-.3963.09-.5655-.111-.0597-.207-.0688-.349-.0724h-.629v.0588c.07-.0172.197.0353.17.1267-.005.3049.015.5908-.014.9147-.054.0688-.08.0426-.15.0498v.066h.615v-.066c-.066.0163-.197-.0344-.17-.1267v-.3854h.17zm-.504-.6387v-.4968c.15-.0072.382.0227.382.2009.013.0715 0 .2778-.175.2913-.063.01-.139.0037-.207.0046zm.148 1.1879c.216 0 .451-.0606.675-.2207.549-.456.631-1.0251.261-1.6087-.457-.5565-1.026-.6388-1.617-.2633-.553.4551-.634 1.0242-.262 1.6087.264.3529.61.4804.943.484zm0-.1266c-.191 0-.4-.0543-.599-.1964-.492-.4071-.566-.9129-.233-1.4395.403-.4913.911-.5627 1.431-.2307.492.4054.566.9147.235 1.435-.235.314-.544.4289-.834.4316z"/><path d="m20.8416 12.9132c-.9158-.5119-1.9734-.7869-3.0311-.7869s-2.1154.275-3.0312.7869c-.9207.5171-1.686 1.2584-2.2198 2.1504-.5302.8935-.8102 1.9058-.8122 2.9364 0 1.0255.2838 2.0502.8122 2.9373.5293.8872 1.3032 1.6377 2.2198 2.1496.9167.5118 1.9735.7868 3.0312.7868s2.1153-.2741 3.0311-.7868c.9158-.5128 1.6905-1.2624 2.2198-2.1496.5304-.8938.8104-1.9063.8122-2.9373 0-1.0246-.2829-2.0492-.8122-2.9364-.5338-.892-1.299-1.6333-2.2198-2.1504z"/><path d="m33.5889 8.99933c-1.5697-2.71966-3.8689-5.01869-6.5878-6.58838-2.7189-1.569691-5.8602-2.41095-9.0006-2.41095-3.1405 0-6.28.841259-8.99982 2.41095-2.73322 1.58402-5.00461 3.8553-6.5887 6.58838-1.570677 2.71967-2.41198 5.85997-2.41198 9.00017 0 3.1403.841303 6.2806 2.41198 9.0003 1.58356 2.7335 3.85507 5.0049 6.5887 6.5883 2.73802 1.5755 5.84082 2.407 8.99982 2.4119 3.1404 0 6.2808-.8413 9.0006-2.4119 2.7198-1.5696 5.0181-3.8687 6.5878-6.5883 1.5698-2.7197 2.4111-5.86 2.4111-9.0003 0-3.1402-.8413-6.2814-2.4111-9.00017zm-5.2744 14.95227c-1.0439 1.8021-2.5415 3.2996-4.3437 4.3435-1.8057 1.0381-3.8514 1.5861-5.9342 1.5895-2.0699 0-4.1398-.5542-5.9334-1.5895-1.7927-1.0354-3.30834-2.5509-4.34372-4.3435-1.03538-1.7927-1.58962-3.8633-1.58962-5.9331 0-2.0707.55424-4.1413 1.58962-5.934 1.03538-1.7926 2.55102-3.30903 4.34372-4.34346 1.8052-1.03841 3.8508-1.58641 5.9334-1.58955 2.0707 0 4.1406.55422 5.9342 1.58955 1.802 1.04416 3.2995 2.54156 4.3437 4.34346 1.0389 1.8054 1.5872 3.8511 1.5906 5.934-.0039 2.0825-.5522 4.1278-1.5906 5.9331z"/></g></svg>

<svg width="169" height="36" viewBox="0 0 169 36" fill="none" xmlns="http://www.w3.org/2000/svg">
<path fill-rule="evenodd" clip-rule="evenodd" d="M41.6843 9.70153H49.1328V30.6888H55.3223V9.70153H62.7717V4.38867H41.6843V9.70153ZM57.1064 30.6888H63.6109L65.4645 25.3768H73.0519L74.8368 30.6888H81.2367L72.2135 4.38958H65.4464L57.1064 30.6888V30.6888ZM71.2651 20.5969H66.7477L69.0181 14.267L71.2651 20.5969ZM81.7619 30.6888H87.7412V21.2212H92.0438C92.9517 21.2212 94.0057 21.0556 94.5444 21.7957C95.0831 22.5358 95.0326 23.8242 95.0137 25.1561C94.9929 26.4879 94.9992 27.8613 95.3006 28.8412C95.6002 29.8211 96.1398 30.6888 96.9222 30.6888H102.324C101.704 30.0349 101.264 29.2304 101.048 28.3544C100.835 27.4732 100.865 26.5132 100.904 25.4492C100.942 24.3861 100.988 23.2198 100.865 22.2635C100.743 21.3053 100.454 20.558 99.9814 19.9662C99.5028 19.374 98.8591 18.938 98.1323 18.714C99.273 17.8934 100.23 16.8013 100.812 15.6432C101.392 14.486 101.596 13.2636 101.673 12.053C101.751 10.8425 101.7 9.64453 101.319 8.50632C100.936 7.36811 100.224 6.28871 99.2658 5.5486C98.2975 4.80374 97.113 4.39672 95.8926 4.38958H81.761V30.6888H81.7619V30.6888ZM94.6861 10.2091C95.4053 10.6859 95.8439 11.5609 95.833 12.4466C95.8222 12.8991 95.7055 13.3426 95.4925 13.7416C95.2795 14.1406 94.9761 14.4839 94.6067 14.7439C93.8559 15.2614 92.8479 15.151 91.9103 15.151H87.7367V9.95396H92.1395C93.0184 9.95396 93.9651 9.7323 94.6861 10.2091V10.2091ZM104.806 9.04376C103.907 10.3756 103.244 11.939 102.884 13.9386C102.525 15.9382 102.467 18.3747 102.791 20.501C103.113 22.6281 103.818 24.444 104.675 25.8518C105.531 27.2597 106.539 28.2576 107.637 29.1099C108.736 29.9622 109.92 30.668 111.256 31.0643C112.603 31.4547 114.018 31.5522 115.405 31.3502C116.74 31.1511 117.924 30.6653 118.847 30.2445C119.768 29.8229 120.43 29.4664 121.05 29.0484L122.1 30.6879H125.983L125.974 15.9427H114.853V21.0873H120.068C120.271 21.9749 120.149 22.9466 119.7 23.7555C119.25 24.5634 118.472 25.2085 117.368 25.6645C116.264 26.1196 114.837 26.3847 113.446 25.9622C112.057 25.5397 110.707 24.4295 109.818 23.1583C108.93 21.8889 108.501 20.4575 108.312 18.8733C108.126 17.2899 108.179 15.5527 108.557 14.0381C108.935 12.5235 109.639 11.2297 110.522 10.2978C111.407 9.36586 112.472 8.79676 113.813 8.55337C115.153 8.30998 116.77 8.39413 117.847 8.99671C118.926 9.59929 119.465 10.7194 119.776 11.4315C120.086 12.1435 120.169 12.4466 120.179 12.7579H125.766C125.683 11.5943 125.353 10.457 124.687 9.15776C124.02 7.8585 123.018 6.39909 121.594 5.37036C120.17 4.34163 118.325 3.74537 116.614 3.51918C115.041 3.30347 113.44 3.40966 111.908 3.83133C110.492 4.22491 109.231 4.86821 108.034 5.7386C106.838 6.61171 105.704 7.71193 104.806 9.04376V9.04376ZM146.651 30.6888V25.3768H134.324V19.275L144.918 19.2533L144.92 14.4362H134.324V9.70244H146.651V4.38958L128.157 4.3932L128.187 30.6888H146.651V30.6888ZM147.543 9.70153H154.994V30.6888H161.183V9.70153H168.632V4.38867H147.543V9.70153V9.70153ZM164.169 29.5089H164.51V29.4429C164.46 29.4438 164.391 29.4275 164.362 29.3615L164.103 28.9308C164.349 28.8521 164.448 28.5345 164.193 28.3653C164.082 28.3056 163.986 28.2965 163.844 28.2929H163.215V28.3517C163.285 28.3345 163.412 28.387 163.385 28.4784C163.38 28.7833 163.4 29.0692 163.371 29.3931C163.317 29.4619 163.291 29.4357 163.221 29.4429V29.5089H163.836V29.4429C163.77 29.4592 163.639 29.4085 163.666 29.3162V28.9308H163.836L164.169 29.5089ZM163.665 28.8702V28.3734C163.815 28.3662 164.047 28.3961 164.047 28.5743C164.06 28.6458 164.047 28.8521 163.872 28.8656C163.809 28.8756 163.733 28.8693 163.665 28.8702V28.8702ZM163.813 30.0581C164.029 30.0581 164.264 29.9975 164.488 29.8374C165.037 29.3814 165.119 28.8123 164.749 28.2287C164.292 27.6722 163.723 27.5899 163.132 27.9654C162.579 28.4205 162.498 28.9896 162.87 29.5741C163.134 29.927 163.48 30.0545 163.813 30.0581V30.0581ZM163.813 29.9315C163.622 29.9315 163.413 29.8772 163.214 29.7351C162.722 29.328 162.648 28.8222 162.981 28.2956C163.384 27.8043 163.892 27.7329 164.412 28.0649C164.904 28.4703 164.978 28.9796 164.647 29.4999C164.412 29.8139 164.103 29.9288 163.813 29.9315V29.9315Z" fill="#ADB5BD"/>
<path fill-rule="evenodd" clip-rule="evenodd" d="M20.8416 12.9132C19.9258 12.4013 18.8682 12.1263 17.8105 12.1263C16.7528 12.1263 15.6951 12.4013 14.7793 12.9132C13.8586 13.4303 13.0933 14.1716 12.5595 15.0636C12.0293 15.9571 11.7493 16.9694 11.7473 18C11.7473 19.0255 12.0311 20.0502 12.5595 20.9373C13.0888 21.8245 13.8627 22.575 14.7793 23.0869C15.696 23.5987 16.7528 23.8737 17.8105 23.8737C18.8682 23.8737 19.9258 23.5996 20.8416 23.0869C21.7574 22.5741 22.5321 21.8245 23.0614 20.9373C23.5918 20.0435 23.8718 19.031 23.8736 18C23.8736 16.9754 23.5907 15.9508 23.0614 15.0636C22.5276 14.1716 21.7624 13.4303 20.8416 12.9132V12.9132Z" fill="#ADB5BD"/>
<path fill-rule="evenodd" clip-rule="evenodd" d="M33.5889 8.99933C32.0192 6.27967 29.72 3.98064 27.0011 2.41095C24.2822 0.841259 21.1409 0 18.0005 0C14.86 0 11.7205 0.841259 9.00068 2.41095C6.26746 3.99497 3.99607 6.26625 2.41198 8.99933C0.841303 11.719 0 14.8593 0 17.9995C0 21.1398 0.841303 24.2801 2.41198 26.9998C3.99554 29.7333 6.26705 32.0047 9.00068 33.5881C11.7387 35.1636 14.8415 35.9951 18.0005 36C21.1409 36 24.2813 35.1587 27.0011 33.5881C29.7209 32.0185 32.0192 29.7194 33.5889 26.9998C35.1587 24.2801 36 21.1398 36 17.9995C36 14.8593 35.1587 11.7181 33.5889 8.99933ZM28.3145 23.9516C27.2706 25.7537 25.773 27.2512 23.9708 28.2951C22.1651 29.3332 20.1194 29.8812 18.0366 29.8846C15.9667 29.8846 13.8968 29.3304 12.1032 28.2951C10.3105 27.2597 8.79486 25.7442 7.75948 23.9516C6.7241 22.1589 6.16986 20.0883 6.16986 18.0185C6.16986 15.9478 6.7241 13.8772 7.75948 12.0845C8.79486 10.2919 10.3105 8.77547 12.1032 7.74104C13.9084 6.70263 15.954 6.15463 18.0366 6.15149C20.1073 6.15149 22.1772 6.70571 23.9708 7.74104C25.7728 8.7852 27.2703 10.2826 28.3145 12.0845C29.3534 13.8899 29.9017 15.9356 29.9051 18.0185C29.9012 20.101 29.3529 22.1463 28.3145 23.9516V23.9516Z" fill="#ADB5BD"/>
</svg>
